X:1
T:Heigh-ho! For a Husband
M:4/4
L:1/4
K:D
 F F/2G/2 A D| E3/2 D/2 D2| d B F ^G| A3 B/2c/2| d A B A| G F EF/2-G/2|\
 A F E3/2 D/2| D3 D| C A, B, C| D E F A| ^G A B3/2 A/2| A3 A,| AA/2-G/2 FE/2-D/2|\
E/2-D/2C/2-B,/2 A,F/2-G/2| A F E3/2 D/2| D4| A z A2-| A ^G/2F/2 E E|\
 E z E2-| E D/2C/2 B, B,| C A,D/2-E/2F/2-^G/2| A4| d A BF/2-G/2| A DC/2-D/2 E|\
 A, A2 A-| A F E3/2 D/2| D4|
